#Title Broken-chord example

#Tempo 120
#ZenLen 192

@1 square
@2 square adsr 13 2 5 10

A @1 v14 l4

; Examples from docs/mml-syntax.md
A {{ceg}} w
A {{ce-g}}2,32 w
A {{c}}4,,0 w
A {{de}}4,,0 w
A {{fg}}4,%3,0 w
A {{ab}}4,16,0 w

; Broken chords can be slurred.
A @2
A {{ceg}} & {{gbd}} & r w
A {{ceg}},,0 & {{gbd}},,0 & r w
