#Title Transpose test
#Tempo 120

@1 square

A @1

;; asm transpose

A c \asm { set_transpose +3 } c \asm { set_transpose -3 } c r2
A \asm {disable_transpose} r

A [c \asm { adjust_transpose +1 }]4 c
A \asm {disable_transpose} r

A [c \asm { adjust_transpose -2 }]4 c
A \asm {disable_transpose} r

!s c d c e d. r8
A !s
A \asm { set_transpose +4 } !s
A \asm { set_transpose -4 } !s
A \asm { disable_transpose } !s
A \asm { disable_transpose } r

A \asm {
  start_loop
    play_note c4 no_keyoff 12
	portamento_calc g4 keyoff 11 24
    adjust_transpose +3
  end_loop 4
}
A \asm {disable_transpose} r
