; Loop stack test
;
; Tests that a 7 nested loops work correctly on all music channels
; and the bytecode stack is not corrupted when the maximum loop depth has been reached.
;
; This test should be run with test_bc_interpreter.

#Timer 64

@1 triangle

ABCDEFGH @1 v5 l32

ABCDEFGH [[[[[[[ c ]2 ]2 ]2 ]2 ]2 ]2 ]2

ABCDEFGH [[[[[[[ w%1 : w%1 ]3 : w%1 ]3 : c ]3 : d ]3 : e ]3 : f ]3 : g ]3
