#Title bc_interpreter echo stress test

#EchoLength    48
#EchoFeedback  80
; Test starting stereo echo
#EchoVolume    40  80

#Timer 64

@1 square

; Silent test.
; It glitches a lot
A @1 v0 l8 o4

A E1
A [cdefg r1]6

; These lines caused a error in test_bc_interpreter
B w8 \evol 50 w8 \evol +18,+20 w8 \evol 20,20 w
C w8          w8 \evol -20,+48 w8 \evol +2,+8 w
D w%60


; Test modifying echo volume in multiple channels
B w%12 [w%3 \evol +11,-7 w%3 \evol -11,-7]51 w
C w%18 [w%5 \evol +23    w%5 \evol -31   ]30 w
D w%61 \evol 64  w%97 \evol 60,60 w%101 \evol 90 w%83


; Test modifying echo feedback in multiple channels
E w%13 [ r%5 \efb+ 86 r%6  \efb- 63 r%12 \efb+ 17 r%16 \efb+ 20 r%9 \efb- 32  r%11 \efb+ 108 r%11 \efb- 106 r%11 \efb+ 21 ]7
F w%27 [ r%7 \efb- 37 r%11 \efb+ 12 r%7  \efb- 83 r%5  \efb- 7  r%6 \efb- 114 r%6  \efb+ 107 r%18 \efb- 19  r%8  \efb- 106]8
G w%100 \efb 0 w%100 \efb 60 w%100 \efb -60 w%100 \efb +25 w%100  \efb -35

; Random FIR commands
A w%7  [ r%9 \fir { -112 45 -59 105 -75 70 119 41 } r%5 \ftap+ 0,93 r%13 \ftap+ 2,72 r%3 \ftap+ 7,100 r%9 \ftap- 2,115 r%3 \ftap+ 2,0 r%11 \ftap- 7,39 r%16 \ftap- 5,14 ]7
B w%13 [ r%6 \ftap- 1,123 r%4 \ftap- 3,21 r%8 \ftap- 5,75 r%14 \ftap- 3,49 r%6 \ftap- 7,38 r%14 \ftap+ 0,92 r%12 \ftap 3,120 r%3 \ftap 0,-46 ]7
C w%18 [ r%6 \ftap+ 0,47 r%8 \ftap 7,33 r%2 \ftap- 7,88 r%9 \ftap- 5,107 r%7 \ftap- 0,128 r%2 \ftap+ 0,112 r%16 \ftap+ 7,0 r%4 \ftap+ 0,39 ]7
D w%22 [ r%7 \ftap+ 5,44 r%7 \ftap- 4,100 r%8 \ftap- 6,11 r%10 \ftap- 6,46 r%15 \ftap- 7,7 r%12 \ftap 1,-20 r%7 \ftap 7,-67 r%13 \ftap+ 2,12 ]7
E w%19 [ r%11 \ftap+ 0,127 r%8 \ftap+ 5,21 r%5 \ftap- 5,123 r%10 \ftap 1,10 r%4 \ftap 6,100 r%11 \ftap+ 6,35 r%8 \ftap- 6,13 r%3 \ftap+ 0,47 ]7
F w%32 [ r%3 \ftap+ 7,11 r%13 \ftap- 3,110 r%11 \ftap- 5,23 r%2 \ftap+ 2,117 r%6 \ftap+ 6,123 r%8 \ftap+ 3,92 r%10 \ftap 7,16 r%5 \ftap+ 2,90 ]7
G w%18 [ r%7 \ftap- 5,8 r%8 \ftap+ 6,28 r%2 \ftap+ 7,124 r%7 \ftap- 0,59 r%14 \ftap- 6,6 r%3 \ftap+ 3,51 r%9 \ftap 4,34 r%12 \ftap+ 6,60 ]7
H w%30 [ r%15 \ftap+ 3,25 r%13 \ftap+ 5,84 r%7 \ftap- 6,14 r%15 \ftap+ 5,27 r%4 \ftap- 7,100 r%8 \ftap- 0,106 r%11 \ftap+ 5,20 r%12 \ftap+ 3,88 ]7


