; bc_interpreter echo test

#EchoLength   240
#EchoFeedback  80
#EchoVolume   100

@1 square

AH l8

A @1 v16 l8 o4

A E1
A cdefg r1
H wwwww w1

; Incrementing echo volume over multiple ticks
; Using channel H so it can be ducked by sfx without ducking notes (H is silent)
A cdefg r1
H \evol 0 [ w%1 \evol +1]120 w%36

; Moving echo
; (This echo is constant in mono)
A cdefg r1
H \evol 120,0 w%36 [ w%1 \evol -2,+2]60 w%60

H \evol 80


; Slowly decrease echo feedback
A c^^^^ r1
H \efb 100 w%12 [ w%1 \efb- 1]60 w%84

