; bc_interpreter subroutine test

#Tempo 140

@1 square

!1 l8 cd !2 ab
!2 l8 efg
!3 l8 ba !4 dc
!4 l8 gfe

A @1 l8 v16
A !1 !2 r !3 !4 r !1 !2 r !3 !4 r !1 !2 r !3 !4 r

; Used to test the "Play Song from cursor" button
B @1 l32 v0
B aaaaaaaaaaaaaaaaaaaaaaaaaaaaaaaaaaaaaaaaaaaa
B aaaaaaaaaaaaaaaaaaaaaaaaaaaaaaaaaaaaaaaaaaaa
B aaaaaaaaaaaaaaaaaaaaaaaaaaaaaaaaaaaaaaaaaaaa
B aaaaaaaaaaaaaaaaaaaaaaaaaaaaaaaaaaaaaaaaaaaa
B aaaaaaaaaaaaaaaaaaaaaaaaaaaaaaaaaaaaaaaaaaaa
B aaaaaaaaaaaaaaaaaaaaaaaaaaaaaaaaaaaaaaaaaaaa
